src/images/svg/markets/advanced-charting-widgets-new.svg

<svg width="50" height="50" viewBox="0 0 50 50" fill="none" xmlns="http://www.w3.org/2000/svg">
<rect opacity="0.01" x="1" y="1" width="48" height="48" fill="white" stroke="#979797"/>
<path fill-rule="evenodd" clip-rule="evenodd" d="M19.2029 23.9515H6.65392C6.21892 23.9515 5.86492 23.5985 5.86492 23.1635C5.86492 22.7275 6.21892 22.3745 6.65392 22.3745H19.2029C19.6389 22.3745 19.9909 22.7275 19.9909 23.1635C19.9909 23.5985 19.6389 23.9515 19.2029 23.9515ZM19.2029 28.8185H6.65392C6.21892 28.8185 5.86492 28.4655 5.86492 28.0305C5.86492 27.5945 6.21892 27.2415 6.65392 27.2415H19.2029C19.6389 27.2415 19.9909 27.5945 19.9909 28.0305C19.9909 28.4655 19.6389 28.8185 19.2029 28.8185ZM19.2029 33.6836H6.65392C6.21892 33.6836 5.86492 33.3306 5.86492 32.8946C5.86492 32.4596 6.21892 32.1066 6.65392 32.1066H19.2029C19.6389 32.1066 19.9909 32.4596 19.9909 32.8946C19.9909 33.3306 19.6389 33.6836 19.2029 33.6836ZM12.9359 38.5507H6.65392C6.21892 38.5507 5.86492 38.1977 5.86492 37.7627C5.86492 37.3267 6.21892 36.9737 6.65392 36.9737H12.9359C13.3719 36.9737 13.7249 37.3267 13.7249 37.7627C13.7249 38.1977 13.3719 38.5507 12.9359 38.5507ZM33 31.1408V21.0008C33 18.7918 31.209 17.0008 29 17.0008H5C2.791 17.0008 1 18.7918 1 21.0008V45.0008C1 47.2098 2.791 49.0008 5 49.0008H15.266C15.266 39.1938 23.21 31.2138 33 31.1408Z" fill="#85ACAF"/>
<path fill-rule="evenodd" clip-rule="evenodd" d="M45.9363 39.6556L36.5933 48.9996H48.9993C48.9993 45.5016 47.8543 42.2786 45.9363 39.6556Z" fill="#85ACAF"/>
<path fill-rule="evenodd" clip-rule="evenodd" d="M35.1338 33.2731V47.6311L44.6538 38.1111C42.1938 35.5101 38.8688 33.7441 35.1338 33.2731Z" fill="#85ACAF"/>
<path fill-rule="evenodd" clip-rule="evenodd" d="M17.2666 48.9999H33.1336V33.1329C24.3706 33.1329 17.2666 40.2369 17.2666 48.9999Z" fill="#85ACAF"/>
<g style="mix-blend-mode:multiply">
<path fill-rule="evenodd" clip-rule="evenodd" d="M22 5.5V23.5C22 25.9851 24.0149 28 26.5 28H44.5C46.9851 28 49 25.9851 49 23.5V5.5C49 3.01487 46.9851 1 44.5 1H26.5C24.0149 1 22 3.01487 22 5.5Z" fill="#FF444F"/>
</g>
<path fill-rule="evenodd" clip-rule="evenodd" d="M34.2385 16.7152C34.2385 17.4322 33.6557 18.013 32.9349 18.013C32.2141 18.013 31.63 17.4322 31.63 16.7152V6.79662C31.63 6.07969 32.2141 5.5 32.9349 5.5C33.6557 5.5 34.2385 6.07969 34.2385 6.79662V16.7152ZM43.1963 18.0127C43.9171 18.0127 44.5 17.4319 44.5 16.7149V10.7477C44.5 10.0307 43.9171 9.44986 43.1963 9.44986C42.4755 9.44986 41.8927 10.0307 41.8927 10.7477V16.7149C41.8927 17.4319 42.4755 18.0127 43.1963 18.0127ZM41.8927 22.203C41.8927 22.9187 42.4755 23.4996 43.1963 23.4996C43.9171 23.4996 44.5 22.9187 44.5 22.203C44.5 21.486 43.9171 20.9052 43.1963 20.9052C42.4755 20.9052 41.8927 21.486 41.8927 22.203ZM39.371 16.7144C39.371 17.4314 38.7858 18.0122 38.065 18.0122C37.3442 18.0122 36.7614 17.4314 36.7614 16.7144V13.3854C36.7614 12.6684 37.3442 12.0876 38.065 12.0876C38.7858 12.0876 39.371 12.6684 39.371 13.3854V16.7144ZM36.7614 22.203C36.7614 22.9187 37.3442 23.4996 38.065 23.4996C38.7858 23.4996 39.371 22.9187 39.371 22.203C39.371 21.486 38.7858 20.9052 38.065 20.9052C37.3442 20.9052 36.7614 21.486 36.7614 22.203ZM31.63 22.203C31.63 22.9187 32.2141 23.4996 32.9349 23.4996C33.6557 23.4996 34.2385 22.9187 34.2385 22.203C34.2385 21.486 33.6557 20.9052 32.9349 20.9052C32.2141 20.9052 31.63 21.486 31.63 22.203ZM29.1085 16.7157C29.1085 17.4326 28.5244 18.0135 27.8036 18.0135C27.0828 18.0135 26.5 17.4326 26.5 16.7157V10.1427C26.5 9.42575 27.0828 8.84488 27.8036 8.84488C28.5244 8.84488 29.1085 9.42575 29.1085 10.1427V16.7157ZM26.5 22.203C26.5 22.9187 27.0828 23.4996 27.8036 23.4996C28.5244 23.4996 29.1085 22.9187 29.1085 22.203C29.1085 21.486 28.5244 20.9052 27.8036 20.9052C27.0828 20.9052 26.5 21.486 26.5 22.203Z" fill="white"/>
</svg>

<svg width="50" height="50" fill="none" xmlns="http://www.w3.org/2000/svg"><path opacity=".01" fill="#fff" stroke="#979797" d="M1 1h48v48H1z"/><path fill-rule="evenodd" clip-rule="evenodd" d="M19.203 23.951H6.653a.79.79 0 0 1 0-1.576h12.55a.788.788 0 1 1 0 1.576Zm0 4.867H6.653a.79.79 0 0 1 0-1.577h12.55a.788.788 0 1 1 0 1.578Zm0 4.866H6.653a.79.79 0 0 1 0-1.577h12.55a.788.788 0 1 1 0 1.577Zm-6.267 4.867H6.654a.79.79 0 0 1 0-1.577h6.282a.789.789 0 1 1 0 1.577ZM33 31.14V21a4 4 0 0 0-4-4H5a4 4 0 0 0-4 4v24a4 4 0 0 0 4 4h10.266c0-9.807 7.944-17.787 17.734-17.86ZM45.936 39.656 36.593 49H49c0-3.498-1.145-6.721-3.063-9.344ZM35.134 33.273v14.358l9.52-9.52a15.811 15.811 0 0 0-9.52-4.838Z" fill="#85ACAF"/><path fill-rule="evenodd" clip-rule="evenodd" d="M17.267 49h15.867V33.133c-8.763 0-15.867 7.104-15.867 15.867Z" fill="#85ACAF"/><path fill-rule="evenodd" clip-rule="evenodd" d="M22 5.5v18a4.5 4.5 0 0 0 4.5 4.5h18a4.5 4.5 0 0 0 4.5-4.5v-18A4.5 4.5 0 0 0 44.5 1h-18A4.5 4.5 0 0 0 22 5.5Z" fill="#FF444F" style="mix-blend-mode:multiply"/><path fill-rule="evenodd" clip-rule="evenodd" d="M34.239 16.715a1.3 1.3 0 0 1-1.304 1.298c-.72 0-1.305-.58-1.305-1.298V6.797A1.3 1.3 0 0 1 32.935 5.5a1.3 1.3 0 0 1 1.303 1.297v9.918Zm8.957 1.298a1.3 1.3 0 0 0 1.304-1.298v-5.967a1.3 1.3 0 0 0-1.304-1.298 1.3 1.3 0 0 0-1.303 1.298v5.967a1.3 1.3 0 0 0 1.303 1.298Zm-1.303 4.19a1.3 1.3 0 0 0 1.303 1.297 1.3 1.3 0 0 0 1.304-1.297 1.3 1.3 0 0 0-1.304-1.298 1.3 1.3 0 0 0-1.303 1.298Zm-2.522-5.489c0 .717-.585 1.298-1.306 1.298a1.3 1.3 0 0 1-1.304-1.298v-3.329a1.3 1.3 0 0 1 1.304-1.297c.72 0 1.306.58 1.306 1.297v3.33Zm-2.61 5.489a1.3 1.3 0 0 0 1.304 1.297c.72 0 1.306-.581 1.306-1.297 0-.717-.585-1.298-1.306-1.298a1.3 1.3 0 0 0-1.304 1.298Zm-5.131 0a1.3 1.3 0 0 0 1.305 1.297 1.3 1.3 0 0 0 1.303-1.297 1.3 1.3 0 0 0-1.303-1.298c-.72 0-1.305.581-1.305 1.298Zm-2.521-5.487c0 .717-.585 1.297-1.305 1.297a1.3 1.3 0 0 1-1.304-1.297v-6.573a1.3 1.3 0 0 1 1.304-1.298c.72 0 1.305.58 1.305 1.298v6.573ZM26.5 22.203a1.3 1.3 0 0 0 1.304 1.297 1.3 1.3 0 0 0 1.305-1.297c0-.717-.585-1.298-1.305-1.298a1.3 1.3 0 0 0-1.304 1.298Z" fill="#fff"/></svg>
